X: 25
T:Soldier's Joy
M:4/4
L:1/8
R:Reel
N:Second tune in set with Rakes of Mallow
N:http://www.lesession.co.uk
Z:Steve Mansfield 1998-2001
K:D
FG | AFDF AFDF | A2 d2 d2 B2 | AFDF AFDF | G2 E2 E2 FG |
AFDF AFDF | A2 d2 d2 g2 | fafd egec | d2 f2 d2 :: e2 |
f2 f2 fagf | e2 e2 efge | f2 f2 fagf | edcB A2 e2 |
f2 f2 fagf | e2 e2 efge | fafd egec | d2 f2 d2 :|
<end>
<start>
